X:225
T: AUS DER JUGENDZEIT AUS DER JUGENDZEIT
N: B0269
O: Europa, Mitteleuropa, Deutschland
R: Stimmungs - Lied, Sehnsucht, Jugend
M: 3/4
L: 1/8
K: Eb
GA | GFF2Bc | BAA2
(3GAB | cce3c | B4
ed | dGG2cB | BEE2
EF | GFA2G2 | E2z2
EF | GAG2cA | (3GBAG2
cd | eef3e | d4
dd | feB2=BB | dcF2
G2 | A4AB | G4

@@@ Tune index: 2028
